components/icon/svg/24/journey_1st-class.svg

<?xml version="1.0" encoding="UTF-8"?>
<svg width="24px" height="24px" viewBox="0 0 24 24" version="1.1" xmlns="http://www.w3.org/2000/svg" xmlns:xlink="http://www.w3.org/1999/xlink">
    <!-- Generator: Sketch 64 (93537) - https://sketch.com -->
    <title>ic-db_journey_1st-class_24</title>
    <desc>Created with Sketch.</desc>
    <g id="Symbols" stroke="none" stroke-width="1" fill="none" fill-rule="evenodd">
        <g id="24dp-Icon/Journey/1st-Class" fill="#282D37">
            <path d="M6,18 C6,17.4375 6.4375,17 7,17 L9.9688,17 L9.9688,7.6875 L7.5,9 C7.3438,9.0625 7.1875,9.125 7,9.125 C6.5,9.125 6,8.7188 6,8.0625 C6,7.7188 6.2188,7.4062 6.5312,7.2188 L10.5,5.125 C10.6562,5.0312 10.8125,5 10.9688,5 C11.5312,5 12,5.4688 12,6 L12,17 L15,17 C15.5625,17 16,17.4375 16,18 C16,18.5625 15.5625,19 15,19 L7,19 C6.4375,19 6,18.5625 6,18 Z M18,18 C18,17.4375 18.4375,17 19,17 C19.5625,17 20,17.4375 20,18 C20,18.5625 19.5625,19 19,19 C18.4375,19 18,18.5625 18,18 Z" id="🎨-Color"></path>
        </g>
    </g>
</svg>

<svg width="24" height="24" xmlns="http://www.w3.org/2000/svg"><path d="M6 18c0-.563.438-1 1-1h2.969V7.687L7.5 9c-.156.063-.313.125-.5.125-.5 0-1-.406-1-1.063 0-.343.219-.656.531-.843L10.5 5.125A.881.881 0 0110.969 5C11.53 5 12 5.469 12 6v11h3c.563 0 1 .438 1 1 0 .563-.438 1-1 1H7c-.563 0-1-.438-1-1zm12 0c0-.563.438-1 1-1 .563 0 1 .438 1 1 0 .563-.438 1-1 1-.563 0-1-.438-1-1z" fill="#282D37" fill-rule="evenodd"/></svg>
